dist/img/library_logo.svg

<svg width="69" height="49" viewBox="0 0 69 49" fill="none" xmlns="http://www.w3.org/2000/svg">
<g filter="url(#filter0_d_24_1076)">
<path fill-rule="evenodd" clip-rule="evenodd" d="M35.5601 0.693637C35.5566 0.307054 35.2404 -0.00348479 34.8538 2.95639e-05C34.4672 0.00354397 34.1567 0.319781 34.1602 0.706364L34.2106 6.25196C33.2974 6.29801 32.4002 6.39247 31.522 6.52866C31.1782 6.582 30.8373 6.64171 30.4996 6.70739L29.0711 1.73233C28.9644 1.36074 28.5767 1.146 28.2051 1.2527C27.8336 1.35939 27.6188 1.74711 27.7255 2.1187L29.1299 7.00995C27.6271 7.38163 26.1965 7.86634 24.8563 8.42463L22.1136 4.63466C21.8869 4.32147 21.4493 4.25131 21.1361 4.47797C20.8229 4.70462 20.7527 5.14224 20.9794 5.45543L23.5483 9.00526C22.1183 9.67985 20.8088 10.4301 19.6452 11.2008L17.1798 8.88039C16.8982 8.61543 16.4552 8.62886 16.1903 8.91038C15.9253 9.1919 15.9387 9.63491 16.2202 9.89987L18.4722 12.0194C17.6917 12.5935 16.9955 13.1681 16.3936 13.7211C16.1089 13.9827 16.0902 14.4255 16.3517 14.7102C16.6133 14.9948 17.0561 15.0136 17.3408 14.752C20.2284 12.0991 25.467 8.88448 31.7366 7.91213C37.9733 6.94487 45.2568 8.18929 52.3324 14.4811C52.6213 14.738 53.0638 14.7121 53.3207 14.4232C53.5776 14.1343 53.5517 13.6918 53.2628 13.4349C52.5294 12.7829 51.7932 12.1821 51.0553 11.63L53.267 9.63093C53.5538 9.3717 53.5761 8.92905 53.3169 8.64224C53.0577 8.35543 52.615 8.33307 52.3282 8.5923L49.8883 10.7976C48.688 9.98294 47.4853 9.29245 46.286 8.71427L48.6946 5.21945C48.914 4.90113 48.8338 4.46523 48.5154 4.24585C48.1971 4.02646 47.7612 4.10667 47.5418 4.42499L44.9877 8.13099C43.5065 7.51357 42.0338 7.06176 40.5804 6.75294L41.9959 1.72531C42.1007 1.35318 41.884 0.966573 41.5118 0.861799C41.1397 0.757024 40.7531 0.973759 40.6483 1.34589L39.197 6.50051C37.983 6.31505 36.7853 6.22611 35.6104 6.22013L35.5601 0.693637ZM17.2359 18.8802L17.5084 18.6373L17.2359 18.3945C20.1929 15.0762 25.4839 11.0848 31.7803 9.93131C38.1406 8.76613 45.4249 10.5183 52.2171 18.5185L52.0772 18.6373L52.2171 18.7561C45.4249 26.7563 38.1406 28.5085 31.7803 27.3433C25.4839 26.1899 20.1929 22.1985 17.2359 18.8802ZM32.0326 25.9663C26.5536 24.9625 21.8251 21.6384 18.921 18.6373C21.8251 15.6362 26.5536 12.3121 32.0326 11.3084C37.6647 10.2766 44.1831 11.6768 50.4611 18.6373C44.1831 25.5979 37.6647 26.998 32.0326 25.9663ZM40.0336 18.8044C40.0336 21.6923 37.6925 24.0334 34.8046 24.0334C31.9167 24.0334 29.5755 21.6923 29.5755 18.8044C29.5755 15.9165 31.9167 13.5754 34.8046 13.5754C37.6925 13.5754 40.0336 15.9165 40.0336 18.8044ZM41.4336 18.8044C41.4336 22.4655 38.4657 25.4334 34.8046 25.4334C31.1435 25.4334 28.1755 22.4655 28.1755 18.8044C28.1755 15.1433 31.1435 12.1754 34.8046 12.1754C38.4657 12.1754 41.4336 15.1433 41.4336 18.8044ZM34.6932 20.9139C35.8582 20.9139 36.8026 19.9695 36.8026 18.8044C36.8026 17.6394 35.8582 16.695 34.6932 16.695C33.5281 16.695 32.5837 17.6394 32.5837 18.8044C32.5837 19.9695 33.5281 20.9139 34.6932 20.9139ZM34.6932 22.3139C36.6314 22.3139 38.2026 20.7427 38.2026 18.8044C38.2026 16.8662 36.6314 15.2949 34.6932 15.2949C32.7549 15.2949 31.1837 16.8662 31.1837 18.8044C31.1837 20.7427 32.7549 22.3139 34.6932 22.3139Z" fill="#FF9533"/>
<path d="M9.97 34.36C10.37 34.4867 10.6833 34.7 10.91 35C11.1367 35.2933 11.25 35.6567 11.25 36.09C11.25 36.7033 11.01 37.1767 10.53 37.51C10.0567 37.8367 9.36333 38 8.45 38H4.83V31H8.25C9.10333 31 9.75667 31.1633 10.21 31.49C10.67 31.8167 10.9 32.26 10.9 32.82C10.9 33.16 10.8167 33.4633 10.65 33.73C10.49 33.9967 10.2633 34.2067 9.97 34.36ZM6.44 32.22V33.87H8.05C8.45 33.87 8.75333 33.8 8.96 33.66C9.16667 33.52 9.27 33.3133 9.27 33.04C9.27 32.7667 9.16667 32.5633 8.96 32.43C8.75333 32.29 8.45 32.22 8.05 32.22H6.44ZM8.33 36.78C8.75667 36.78 9.07667 36.71 9.29 36.57C9.51 36.43 9.62 36.2133 9.62 35.92C9.62 35.34 9.19 35.05 8.33 35.05H6.44V36.78H8.33ZM12.3665 32.62H13.9265V38H12.3665V32.62ZM13.1465 31.87C12.8598 31.87 12.6265 31.7867 12.4465 31.62C12.2665 31.4533 12.1765 31.2467 12.1765 31C12.1765 30.7533 12.2665 30.5467 12.4465 30.38C12.6265 30.2133 12.8598 30.13 13.1465 30.13C13.4332 30.13 13.6665 30.21 13.8465 30.37C14.0265 30.53 14.1165 30.73 14.1165 30.97C14.1165 31.23 14.0265 31.4467 13.8465 31.62C13.6665 31.7867 13.4332 31.87 13.1465 31.87ZM20.9243 32.62V37.1C20.9243 38.0867 20.6676 38.82 20.1543 39.3C19.641 39.78 18.891 40.02 17.9043 40.02C17.3843 40.02 16.891 39.9567 16.4243 39.83C15.9576 39.7033 15.571 39.52 15.2643 39.28L15.8843 38.16C16.111 38.3467 16.3976 38.4933 16.7443 38.6C17.091 38.7133 17.4376 38.77 17.7843 38.77C18.3243 38.77 18.721 38.6467 18.9743 38.4C19.2343 38.16 19.3643 37.7933 19.3643 37.3V37.07C18.9576 37.5167 18.391 37.74 17.6643 37.74C17.171 37.74 16.7176 37.6333 16.3043 37.42C15.8976 37.2 15.5743 36.8933 15.3343 36.5C15.0943 36.1067 14.9743 35.6533 14.9743 35.14C14.9743 34.6267 15.0943 34.1733 15.3343 33.78C15.5743 33.3867 15.8976 33.0833 16.3043 32.87C16.7176 32.65 17.171 32.54 17.6643 32.54C18.4443 32.54 19.0376 32.7967 19.4443 33.31V32.62H20.9243ZM17.9743 36.46C18.3876 36.46 18.7243 36.34 18.9843 36.1C19.251 35.8533 19.3843 35.5333 19.3843 35.14C19.3843 34.7467 19.251 34.43 18.9843 34.19C18.7243 33.9433 18.3876 33.82 17.9743 33.82C17.561 33.82 17.221 33.9433 16.9543 34.19C16.6876 34.43 16.5543 34.7467 16.5543 35.14C16.5543 35.5333 16.6876 35.8533 16.9543 36.1C17.221 36.34 17.561 36.46 17.9743 36.46ZM30.4583 34.36C30.8583 34.4867 31.1716 34.7 31.3983 35C31.6249 35.2933 31.7383 35.6567 31.7383 36.09C31.7383 36.7033 31.4983 37.1767 31.0183 37.51C30.5449 37.8367 29.8516 38 28.9383 38H25.3183V31H28.7383C29.5916 31 30.2449 31.1633 30.6983 31.49C31.1583 31.8167 31.3883 32.26 31.3883 32.82C31.3883 33.16 31.3049 33.4633 31.1383 33.73C30.9783 33.9967 30.7516 34.2067 30.4583 34.36ZM26.9283 32.22V33.87H28.5383C28.9383 33.87 29.2416 33.8 29.4483 33.66C29.6549 33.52 29.7583 33.3133 29.7583 33.04C29.7583 32.7667 29.6549 32.5633 29.4483 32.43C29.2416 32.29 28.9383 32.22 28.5383 32.22H26.9283ZM28.8183 36.78C29.2449 36.78 29.5649 36.71 29.7783 36.57C29.9983 36.43 30.1083 36.2133 30.1083 35.92C30.1083 35.34 29.6783 35.05 28.8183 35.05H26.9283V36.78H28.8183ZM34.3448 33.33C34.5314 33.07 34.7814 32.8733 35.0948 32.74C35.4148 32.6067 35.7814 32.54 36.1948 32.54V33.98C36.0214 33.9667 35.9048 33.96 35.8448 33.96C35.3981 33.96 35.0481 34.0867 34.7948 34.34C34.5414 34.5867 34.4148 34.96 34.4148 35.46V38H32.8548V32.62H34.3448V33.33ZM39.6335 38.08C39.0668 38.08 38.5568 37.9633 38.1035 37.73C37.6568 37.49 37.3068 37.16 37.0535 36.74C36.8002 36.32 36.6735 35.8433 36.6735 35.31C36.6735 34.7767 36.8002 34.3 37.0535 33.88C37.3068 33.46 37.6568 33.1333 38.1035 32.9C38.5568 32.66 39.0668 32.54 39.6335 32.54C40.2002 32.54 40.7068 32.66 41.1535 32.9C41.6002 33.1333 41.9502 33.46 42.2035 33.88C42.4568 34.3 42.5835 34.7767 42.5835 35.31C42.5835 35.8433 42.4568 36.32 42.2035 36.74C41.9502 37.16 41.6002 37.49 41.1535 37.73C40.7068 37.9633 40.2002 38.08 39.6335 38.08ZM39.6335 36.8C40.0335 36.8 40.3602 36.6667 40.6135 36.4C40.8735 36.1267 41.0035 35.7633 41.0035 35.31C41.0035 34.8567 40.8735 34.4967 40.6135 34.23C40.3602 33.9567 40.0335 33.82 39.6335 33.82C39.2335 33.82 38.9035 33.9567 38.6435 34.23C38.3835 34.4967 38.2535 34.8567 38.2535 35.31C38.2535 35.7633 38.3835 36.1267 38.6435 36.4C38.9035 36.6667 39.2335 36.8 39.6335 36.8ZM47.0963 37.74C46.9429 37.8533 46.7529 37.94 46.5263 38C46.3063 38.0533 46.0729 38.08 45.8263 38.08C45.1863 38.08 44.6896 37.9167 44.3363 37.59C43.9896 37.2633 43.8163 36.7833 43.8163 36.15V33.94H42.9863V32.74H43.8163V31.43H45.3763V32.74H46.7163V33.94H45.3763V36.13C45.3763 36.3567 45.4329 36.5333 45.5462 36.66C45.6663 36.78 45.8329 36.84 46.0463 36.84C46.2929 36.84 46.5029 36.7733 46.6763 36.64L47.0963 37.74ZM51.242 32.54C51.9086 32.54 52.4453 32.74 52.852 33.14C53.2653 33.54 53.472 34.1333 53.472 34.92V38H51.912V35.16C51.912 34.7333 51.8186 34.4167 51.632 34.21C51.4453 33.9967 51.1753 33.89 50.822 33.89C50.4286 33.89 50.1153 34.0133 49.882 34.26C49.6486 34.5 49.532 34.86 49.532 35.34V38H47.972V30.58H49.532V33.18C49.7386 32.9733 49.9886 32.8167 50.282 32.71C50.5753 32.5967 50.8953 32.54 51.242 32.54ZM60.2146 35.33C60.2146 35.35 60.2046 35.49 60.1846 35.75H56.1146C56.1879 36.0833 56.3613 36.3467 56.6346 36.54C56.9079 36.7333 57.2479 36.83 57.6546 36.83C57.9346 36.83 58.1813 36.79 58.3946 36.71C58.6146 36.6233 58.8179 36.49 59.0046 36.31L59.8346 37.21C59.3279 37.79 58.5879 38.08 57.6146 38.08C57.0079 38.08 56.4713 37.9633 56.0046 37.73C55.5379 37.49 55.1779 37.16 54.9246 36.74C54.6713 36.32 54.5446 35.8433 54.5446 35.31C54.5446 34.7833 54.6679 34.31 54.9146 33.89C55.1679 33.4633 55.5113 33.1333 55.9446 32.9C56.3846 32.66 56.8746 32.54 57.4146 32.54C57.9413 32.54 58.4179 32.6533 58.8446 32.88C59.2713 33.1067 59.6046 33.4333 59.8446 33.86C60.0913 34.28 60.2146 34.77 60.2146 35.33ZM57.4246 33.72C57.0713 33.72 56.7746 33.82 56.5346 34.02C56.2946 34.22 56.1479 34.4933 56.0946 34.84H58.7446C58.6913 34.5 58.5446 34.23 58.3046 34.03C58.0646 33.8233 57.7713 33.72 57.4246 33.72ZM62.7432 33.33C62.9299 33.07 63.1799 32.8733 63.4932 32.74C63.8132 32.6067 64.1799 32.54 64.5932 32.54V33.98C64.4199 33.9667 64.3032 33.96 64.2432 33.96C63.7965 33.96 63.4465 34.0867 63.1932 34.34C62.9399 34.5867 62.8132 34.96 62.8132 35.46V38H61.2532V32.62H62.7432V33.33Z" fill="#FF9533"/>
</g>
<defs>
<filter id="filter0_d_24_1076" x="0" y="0" width="69" height="48.02" filterUnits="userSpaceOnUse" color-interpolation-filters="sRGB">
<feFlood flood-opacity="0" result="BackgroundImageFix"/>
<feColorMatrix in="SourceAlpha" type="matrix" values="0 0 0 0 0 0 0 0 0 0 0 0 0 0 0 0 0 0 127 0" result="hardAlpha"/>
<feOffset dy="4"/>
<feGaussianBlur stdDeviation="2"/>
<feComposite in2="hardAlpha" operator="out"/>
<feColorMatrix type="matrix" values="0 0 0 0 0 0 0 0 0 0 0 0 0 0 0 0 0 0 0.25 0"/>
<feBlend mode="normal" in2="BackgroundImageFix" result="effect1_dropShadow_24_1076"/>
<feBlend mode="normal" in="SourceGraphic" in2="effect1_dropShadow_24_1076" result="shape"/>
</filter>
</defs>
</svg>

<svg width="69" height="49" fill="none" xmlns="http://www.w3.org/2000/svg"><g filter="url(#a)" fill="#FF9533"><path fill-rule="evenodd" clip-rule="evenodd" d="M35.56.694a.7.7 0 1 0-1.4.012l.05 5.546a26.13 26.13 0 0 0-3.71.455L29.07 1.732a.7.7 0 1 0-1.346.387l1.405 4.89a29.63 29.63 0 0 0-4.274 1.416l-2.742-3.79a.7.7 0 0 0-1.135.82l2.57 3.55a31.193 31.193 0 0 0-3.904 2.196L17.18 8.88a.7.7 0 0 0-.96 1.019l2.252 2.12a24.82 24.82 0 0 0-2.078 1.701.7.7 0 0 0 .947 1.031c2.887-2.653 8.126-5.868 14.396-6.84 6.236-.967 13.52.277 20.595 6.57a.7.7 0 0 0 .93-1.047 33.805 33.805 0 0 0-2.207-1.805l2.212-2a.7.7 0 0 0-.939-1.038l-2.44 2.206a28.292 28.292 0 0 0-3.602-2.084l2.409-3.495a.7.7 0 1 0-1.153-.794l-2.554 3.706a24.876 24.876 0 0 0-4.408-1.378l1.416-5.028a.7.7 0 1 0-1.348-.38l-1.451 5.156a24.558 24.558 0 0 0-3.587-.28L35.56.693ZM17.236 18.88l.272-.243-.272-.242c2.957-3.319 8.248-7.31 14.544-8.464 6.36-1.165 13.645.587 20.437 8.588l-.14.118.14.12c-6.792 8-14.076 9.752-20.437 8.586-6.296-1.153-11.587-5.145-14.544-8.463Zm14.797 7.086c-5.48-1.004-10.208-4.328-13.112-7.329 2.904-3 7.633-6.325 13.112-7.329 5.632-1.031 12.15.369 18.428 7.33-6.278 6.96-12.796 8.36-18.428 7.328Zm8-7.162a5.229 5.229 0 1 1-10.457 0 5.229 5.229 0 0 1 10.458 0Zm1.4 0a6.629 6.629 0 1 1-13.257 0 6.629 6.629 0 0 1 13.258 0Zm-6.74 2.11a2.11 2.11 0 1 0 0-4.219 2.11 2.11 0 0 0 0 4.219Zm0 1.4a3.51 3.51 0 1 0 0-7.019 3.51 3.51 0 0 0 0 7.019Z"/><path d="M9.97 34.36c.4.127.713.34.94.64.227.293.34.657.34 1.09 0 .613-.24 1.087-.72 1.42-.473.327-1.167.49-2.08.49H4.83v-7h3.42c.853 0 1.507.163 1.96.49.46.327.69.77.69 1.33 0 .34-.083.643-.25.91a1.68 1.68 0 0 1-.68.63Zm-3.53-2.14v1.65h1.61c.4 0 .703-.07.91-.21.207-.14.31-.347.31-.62s-.103-.477-.31-.61c-.207-.14-.51-.21-.91-.21H6.44Zm1.89 4.56c.427 0 .747-.07.96-.21.22-.14.33-.357.33-.65 0-.58-.43-.87-1.29-.87H6.44v1.73h1.89Zm4.037-4.16h1.56V38h-1.56v-5.38Zm.78-.75c-.287 0-.52-.083-.7-.25a.81.81 0 0 1-.27-.62.81.81 0 0 1 .27-.62c.18-.167.413-.25.7-.25.286 0 .52.08.7.24.18.16.27.36.27.6 0 .26-.09.477-.27.65-.18.167-.414.25-.7.25Zm7.777.75v4.48c0 .987-.256 1.72-.77 2.2-.513.48-1.263.72-2.25.72-.52 0-1.013-.063-1.48-.19-.466-.127-.853-.31-1.16-.55l.62-1.12c.227.187.514.333.86.44.347.113.694.17 1.04.17.54 0 .937-.123 1.19-.37.26-.24.39-.607.39-1.1v-.23c-.406.447-.973.67-1.7.67-.493 0-.946-.107-1.36-.32a2.523 2.523 0 0 1-.97-.92 2.558 2.558 0 0 1-.36-1.36c0-.513.12-.967.36-1.36a2.45 2.45 0 0 1 .97-.91c.414-.22.867-.33 1.36-.33.78 0 1.374.257 1.78.77v-.69h1.48Zm-2.95 3.84c.414 0 .75-.12 1.01-.36.267-.247.4-.567.4-.96s-.133-.71-.4-.95c-.26-.247-.596-.37-1.01-.37-.413 0-.753.123-1.02.37-.266.24-.4.557-.4.95 0 .393.134.713.4.96.267.24.607.36 1.02.36Zm12.484-2.1c.4.127.714.34.94.64.227.293.34.657.34 1.09 0 .613-.24 1.087-.72 1.42-.473.327-1.166.49-2.08.49h-3.62v-7h3.42c.854 0 1.507.163 1.96.49.46.327.69.77.69 1.33 0 .34-.083.643-.25.91a1.68 1.68 0 0 1-.68.63Zm-3.53-2.14v1.65h1.61c.4 0 .704-.07.91-.21.207-.14.31-.347.31-.62s-.103-.477-.31-.61c-.206-.14-.51-.21-.91-.21h-1.61Zm1.89 4.56c.427 0 .747-.07.96-.21.22-.14.33-.357.33-.65 0-.58-.43-.87-1.29-.87h-1.89v1.73h1.89Zm5.527-3.45c.186-.26.436-.457.75-.59.32-.133.686-.2 1.1-.2v1.44a5.66 5.66 0 0 0-.35-.02c-.447 0-.797.127-1.05.38-.254.247-.38.62-.38 1.12V38h-1.56v-5.38h1.49v.71Zm5.288 4.75a3.294 3.294 0 0 1-1.53-.35 2.682 2.682 0 0 1-1.05-.99 2.714 2.714 0 0 1-.38-1.43c0-.533.127-1.01.38-1.43.254-.42.604-.747 1.05-.98.454-.24.964-.36 1.53-.36.567 0 1.074.12 1.52.36.447.233.797.56 1.05.98.254.42.38.897.38 1.43 0 .533-.126 1.01-.38 1.43-.253.42-.603.75-1.05.99-.446.233-.953.35-1.52.35Zm0-1.28c.4 0 .727-.133.98-.4.26-.273.39-.637.39-1.09 0-.453-.13-.813-.39-1.08-.253-.273-.58-.41-.98-.41s-.73.137-.99.41c-.26.267-.39.627-.39 1.08 0 .453.13.817.39 1.09.26.267.59.4.99.4Zm7.463.94c-.153.113-.343.2-.57.26-.22.053-.453.08-.7.08-.64 0-1.136-.163-1.49-.49-.346-.327-.52-.807-.52-1.44v-2.21h-.83v-1.2h.83v-1.31h1.56v1.31h1.34v1.2h-1.34v2.19c0 .227.057.403.17.53.12.12.287.18.5.18.247 0 .457-.067.63-.2l.42 1.1Zm4.146-5.2c.667 0 1.203.2 1.61.6.413.4.62.993.62 1.78V38h-1.56v-2.84c0-.427-.093-.743-.28-.95-.187-.213-.457-.32-.81-.32-.393 0-.707.123-.94.37-.233.24-.35.6-.35 1.08V38h-1.56v-7.42h1.56v2.6a2.02 2.02 0 0 1 .75-.47c.293-.113.613-.17.96-.17Zm8.973 2.79c0 .02-.01.16-.03.42h-4.07c.073.333.246.597.52.79.273.193.613.29 1.02.29.28 0 .526-.04.74-.12.22-.087.423-.22.61-.4l.83.9c-.507.58-1.247.87-2.22.87-.607 0-1.144-.117-1.61-.35a2.635 2.635 0 0 1-1.08-.99 2.714 2.714 0 0 1-.38-1.43c0-.527.123-1 .37-1.42a2.625 2.625 0 0 1 1.03-.99c.44-.24.93-.36 1.47-.36a3 3 0 0 1 1.43.34c.426.227.76.553 1 .98.246.42.37.91.37 1.47Zm-2.79-1.61c-.354 0-.65.1-.89.3-.24.2-.387.473-.44.82h2.65a1.27 1.27 0 0 0-.44-.81 1.302 1.302 0 0 0-.88-.31Zm5.318-.39a1.74 1.74 0 0 1 .75-.59c.32-.133.687-.2 1.1-.2v1.44a5.656 5.656 0 0 0-.35-.02c-.446 0-.796.127-1.05.38-.253.247-.38.62-.38 1.12V38h-1.56v-5.38h1.49v.71Z"/></g><defs><filter id="a" x="0" y="0" width="69" height="48.02" filterUnits="userSpaceOnUse" color-interpolation-filters="sRGB"><feFlood flood-opacity="0" result="BackgroundImageFix"/><feColorMatrix in="SourceAlpha" values="0 0 0 0 0 0 0 0 0 0 0 0 0 0 0 0 0 0 127 0" result="hardAlpha"/><feOffset dy="4"/><feGaussianBlur stdDeviation="2"/><feComposite in2="hardAlpha" operator="out"/><feColorMatrix values="0 0 0 0 0 0 0 0 0 0 0 0 0 0 0 0 0 0 0.25 0"/><feBlend in2="BackgroundImageFix" result="effect1_dropShadow_24_1076"/><feBlend in="SourceGraphic" in2="effect1_dropShadow_24_1076" result="shape"/></filter></defs></svg>
